X: 20947
T: Joys Of Mabou Mines, The
R: reel
M: 4/4
K: Gmajor
c|B2 AB GEDE|GABG A2 Ac|B2 AB GEDE|GBgB G2 G:|
e|gfed e2 g2|dBgB A2 Ae|gfed e2 ge|dBAB G2 Ge|
gfed e2 g2|dBgB A2 A2|B2 AB GEDE|GBgB G2 G||

